X: 48
T:Wise Maid, The
M:C|
L:1/8
R:reel
K:D
F2 FG FEDE |FAAB AFED|d2 (3efg fdec|dBAF BEEA|F2 FG FEDE|FAAB AFED|d2 (3
efg fdec|1dBAG FDDE :|2dBAG FDFA ||
|:d2 AG FDFA |dfaf gfeg |fAdf eAce|dfed cAAc|BDGB ADFA|dfaf gfed|(3Bcd c
e dBAG|1FAEA D3  A :|2 FAEA D4   ||
